X:1
T:5 Lieder, Op.4
T:Ich ging im Walde den alten Steig
T:5 Lieder, Op.4
T:3. „Ich ging im Walde den alten Steig” 
T:Clara Faisst 
T:Karl Stieler
T:Creative Commons copyright waiver (CC0 1.0 Universal)
T:Creative Commons copyright waiver (CC0 1.0 Universal)
T:Creative Commons copyright waiver (CC0 1.0 Universal)
C:Clara Faisst
Z:Karl Stieler
Z:Creative Commons copyright waiver (CC0 1.0 Universal)
%%score 1 { ( 2 5 6 ) | ( 3 4 ) }
L:1/8
Q:1/4=92
M:3/4
K:G
V:1 treble nm="Singstimme\nVoice"
V:2 treble nm="Pianoforte"
V:5 treble 
V:6 treble 
V:3 bass 
V:4 bass 
V:1
"^Andante" z6 | z2 z2 E2 | E4 F2 | F3 G G2 | E4 F2 | (F4 G2) | z6 | z6 |!<(! B6 | G3 A B2!<)! | %10
w: |Ich|ging im|Wal- de den|al- ten|Steig, _|||einst|gin- gen wir|
 d6 | B2 z2 z2 |!<(! d6 | ^A3 B d2!<)! |!f! f6 | ^c2 z2 z2 | z6 | z6 | z6 | z2 z2!>(! G2 | %20
w: bei-|de,|einst|gin- gen wir|bei-|de.||||Mein|
 (GF)!>)!!mp! F2 z2[Q:1/4=85] | z2 z2!pp! (^E2- | E2 F2) z2 |[Q:1/4=92] z6 | z2 z2!p! B,2 | %25
w: Her- * ze,|schweig! |_ _||mein|
 B,4 B,2 | z2 E4- | E4 z2 | z6 | z6 | z6 | z2 z2 E2 | E3 F G2 | B2 G2 B2 | e4 e2 | ^d6 | z6 | B6 | %38
w: Her- ze,|schweig! |_||||Es|zit- tert der|Herbst- wind durch's|Gold- ge-|zweig:||einst|
!<(! (G3 A) B2 |!mf! =d6!<)! | B2 z2 z2 |!<(! d6 | (^A3 B) d2!<)! |!f! f6 | ^c2 z2 z2 | z6 | z6 | %47
w: war  _ es|Som-|mer,|einst|war  _ es|Som-|mer.|||
 z6 | z2 z2"^rit."[Q:1/4=80] G2 |[Q:1/4=92] (GF) F2 z2 | z2 z2 (^E2- | E2 F) z z2 | z6 | %53
w: |Mein|Her- * ze,|schweig! |_ _||
 z2 z2 B,2 | B,4 B,2 | z2 E4- | E4 z2 | z6 | z6 | z6[Q:1/4=86] | z6 | !fermata!z6 |] %62
w: mein|Her- ze,|schweig! |_||||||
V:2
!p! z [EGB]2 [EGB]2 [EGB] | z [GB]2 [GB]2 [GB] | z [EGB]2 [EGB]2 [EGB] | z [GB]2 [GB]2 [GB] | %4
 z [EGB]2 [EGB]2 [EGB] | z [GB]2 [GB]2 [GB] | x6 | x6 | x6 | ([^dgb]B [Bdg]G [GBd]^D) | x6 | %11
 ([gbd']d [dgb]G [GBd]D) | x6 | ([df^a]^A [Adf]B [FBd]D) |!f! z (^CF^A^cf) | (^c'2 c'f' c'2) | %16
"_dim." ([f^c']^af^c^AF) | (^c2 cf c2) |!p! ([F^c]^AF^C^A,[I:staff +1]F,) | %19
!p![I:staff -1] z [EG]2 [EG]2 [EG] | z [FA]2 [FA]2"^riten." [FA] | z!pp! [D^E]2 [DE]2 [DE] | %22
 z [^CF]2 [CF]2 z |!f!"^espress." F2"^l.H." f2"^r.H." ^d2 | c[^DF] E[B,E] z[I:staff +1] [E,G,B,] | %25
[I:staff -1] z[I:staff +1] [E,G,B,]2 [E,G,B,]2 [^D,A,B,] | %26
[I:staff -1] z[I:staff +1] [E,G,B,]2 [E,G,B,]2 [E,G,B,] | %27
[I:staff -1] z[I:staff +1] [E,G,B,]2 [E,G,B,]2 [E,G,B,] | %28
[I:staff -1] z!pp![I:staff +1] [E,G,B,]2 [E,G,B,]2 [E,G,B,] | %29
[I:staff -1] z[I:staff +1] [E,G,B,]2 [E,G,B,]2 [E,G,B,] | %30
[I:staff -1] (3z!p!"_leggiero" (.B,.G (3.E.B.G (3.e.B.g) | (3z (.B,.G(3.E.B.G(3.e.B.g) | %32
 (3z (.E.B(3.G.e.B(3.g.e.b) | (3z (.G.e (3.B.g.e (3.b.g.e') | (3z (.G.e(3.B.g.e (3.c'.g.e') | %35
 (3(^d'.f.b (3.^d.f.B (3.d.F.B | (3^d.F.B(3.^D.F.B,(3.D.F,.B,) | x6 | ([^dgb]B [Bdg]G [GBd]^D) | %39
 x6 | ([gbd']d [dgb]B [Bdg]G) | x6 | ([df^a]^A [Adf]B [FBd]D) |!f! z (^CF^A^cf) | %44
!f! ^c'2 c'f' c'2 |"_dim." ([f^c']^af^c^AF) | (^c2 cf c2) |!p! ([F^c]^AF^C^A,F,) | %48
!p! z [EG]2 [EG]2 [EG] | z [FA]2 [FA]2 [FA] | z!pp! [D^E]2 [DE]2 [DE] | z [^CF]2 [CF]2 z | %52
!f! F2"^l.H." f2"^r.H." ^d2 | c[^DF] E[B,E] z2 | z[I:staff +1] [E,G,B,]2 [E,G,B,]2 [E,G,B,] | %55
[I:staff -1][K:bass] z [F,G,B,]2!pp! [E,G,B,]2 [E,G,B,] | z [E,G,B,]2 [E,G,B,]2 [E,G,B,] | %57
 z [E,G,B,]2 [E,G,B,] z2 | z2 [E,G,B,]2 z2 |!ppp! z2"_rit." [E,G,B,]2 z2 | %60
 [E,G,B,]2 z2 [E,G,B,]2- | !fermata![E,G,B,]6 |] %62
V:3
 .E,2 (C2 B,2) |[I:staff -1] (F4 E2) |[I:staff +1] .E,2 (C2 B,2) |[I:staff -1] (F4 E2) | %4
[I:staff +1] .E,2 (C2 B,2) |[I:staff -1] (F4 E2) |[I:staff +1] z!pp! [E,G,B,]2 [E,G,B,]2 [E,G,B,] | %7
 z [G,B,]2 [G,B,]2 [G,B,] |"^cresc." (^D,G,B,[I:staff -1]^DGB) |[I:staff +1] x6 | %10
 (=D,B,=D[I:staff -1]GB=d) |[I:staff +1] x6 | (D,F,^A,[I:staff -1]DF^A) |[I:staff +1] x6 | %14
 (^C,F,^A,^C[I:staff -1]F^A) |[I:staff +1][K:treble] ([^GB]2 [F^A]2 [GB]2) | %16
[K:bass][I:staff -1] [F^A]^cAF^C^A, |[I:staff +1] [^G,B,]2 [F,^A,]2 [G,B,]2 | %18
 [F,^A,]^CA,F,^C,^A,, | .F,,2"^l.H."[I:staff -1] ^c2[I:staff +1] .F,,2 | %20
 F, z"^l.H."[I:staff -1] f[I:staff +1] z[I:staff -1] B[I:staff +1] z | %21
 x2"^l.H."[I:staff -1] !^!B4- |[I:staff +1] x2 x z (=E,2 | %23
[I:staff -1] F[I:staff +1][F,B,][I:staff -1] f[I:staff +1][F,B,]!<(![I:staff -1] ^d[^DF] | %24
 =c2!<)! B2)!p![I:staff +1] z2 | B,,4 x2 | E,,2 (C,2 B,,2) | (G,,4 F,,2) | E,,2 (C,2 B,,2) | %29
 (G,,4 F,,2) | .E,,2 (C,2 B,,2) | (G,4 F,2) | .E,2 (C2 B,2) |[I:staff -1] (F2 E2 B,2) | %34
 .C2 .E2 .A,2 | B,2 (3FB^D B,2 |[I:staff +1] B,,2 (3F,B,^D, B,,2 |!p! (^D,G,B,^D[I:staff -1]GB) | %38
"^cresc."[I:staff +1] x6 | (=D,B,=D[I:staff -1]GB=d) |[I:staff +1] x6 | (D,F,^A,[I:staff -1]DF^A) | %42
[I:staff +1] x6 | ^C,F,^A,[I:staff -1]^CF^A |[I:staff +1][K:treble] ([^GB]2 [F^A]2 [GB]2) | %45
[I:staff -1] [F^A]^cAF^C[I:staff +1]^A, | [^G,B,]2 [F,^A,]2 [G,B,]2 | [F,^A,]^CA,F,^C,^A,, | %48
 F,,2"^l.H."[I:staff -1] ^c2[I:staff +1] F,,2 | %49
 F,2[I:staff -1] .f[I:staff +1] z[I:staff -1] .B[I:staff +1] z | x2[I:staff -1] !>!B4- | %51
[I:staff +1] x2 x z (=E,2 | %52
[I:staff -1] F[I:staff +1][F,B,][I:staff -1] f[I:staff +1][F,B,]!<(![I:staff -1] ^d[^DF]!<)! | %53
 c2 B)[I:staff +1] z B,,2- | B,,4 x2 | .E,,2 (C,2 B,,2) | (G,,4 F,,2) | .E,,2 (C,2 B,,2) | z6 | %59
 .E,,2 z2 C,2- | (C,2 B,,2) z2 | !fermata!E,,6 |] %62
V:4
 x6 | x6 | x6 | x6 | x6 | x6 | .E,,2 (C,2 B,,2) | (F,4 E,2) | x6 | x6 | x6 | x6 | x6 | x6 | x6 | %15
[K:treble] x6 |[K:bass] x6 | x6 | x6 | x6 | x6 | F,2 z2 F,,2 | %22
 F,4[I:staff -1] F,[I:staff +1][F,^A,] | ^D,4 (B,,2 | A,2 G,2) B,,2- | B,,,2 G,,2 F,,2 | x6 | x6 | %28
 x6 | x6 | x6 | x6 | x6 | x6 | x6 | x6 | x6 | x6 | x6 | x6 | x6 | x6 | x6 | x6 |[K:treble] x6 | %45
 x6 | x6 | x6 | x6 | x6 | F,2 x2 F,,2 | F,4[I:staff -1] C[I:staff +1][F,^A,] | ^D,4 (B,,2 | %53
 A,2 G,2) x2 | B,,,2 G,,2 F,,2 | x6 | x6 | x6 | x6 | x6 | x6 | x6 |] %62
V:5
 x6 | x6 | x6 | x6 | x6 | x6 | x6 | x6 | x6 | x6 | x6 | x6 | x6 | x6 | x6 | ^d^e f2 de | x6 | %17
 ^D^E F2 DE | x6 | x6 | x6 | x6 | x6 | x6 | x6 | x6 | x6 | x6 | x6 | x6 | x6 | x6 | x6 | x6 | x6 | %35
 x6 | x6 | x6 | x6 | x6 | x6 | x6 | x6 | x6 | ^d^e f2 de | x6 | ^D^E F2 DE | x6 | x6 | x6 | x6 | %51
 x6 | x6 | x6 | x6 |[K:bass] x6 | x6 | x6 | x6 | x6 | x6 | x6 |] %62
V:6
 x6 | x6 | x6 | x6 | x6 | x6 | x6 | x6 | x6 | x6 | x6 | x6 | x6 | x6 | x6 | x6 | x6 | x6 | x6 | %19
 x6 | x6 | x6 | B2 ^A[I:staff +1] x[I:staff -1] C2 | x6 | x6 | x6 | x6 | x6 | x6 | x6 | x6 | x6 | %32
 x6 | x6 | x6 | x6 | x6 | x6 | x6 | x6 | x6 | x6 | x6 | x6 | x6 | x6 | x6 | x6 | x6 | x6 | x6 | %51
 B2 ^A[I:staff +1] x[I:staff -1] C2 | x6 | x6 | x6 |[K:bass] x6 | x6 | x6 | x6 | x6 | x6 | x6 |] %62

